<?xml version="1.0" encoding="UTF-8"?>
<map version="1.10" tiledversion="1.12.2" orientation="orthogonal" renderorder="right-down" width="123" height="48" tilewidth="16" tileheight="16" infinite="0" nextlayerid="8" nextobjectid="75">
 <objectgroup id="5" name="BackgroundObjects">
  <object id="14" name="Main" x="277.991" y="0.00112153" width="1024" height="768.004">
   <properties>
    <property name="part" value="main"/>
   </properties>
  </object>
  <object id="15" name="Right" x="1302" y="-0.00139583" width="673.016" height="768.008">
   <properties>
    <property name="part" value="right"/>
   </properties>
  </object>
  <object id="16" name="Left" x="-0.0001875" y="0.00580902" width="278" height="767.989">
   <properties>
    <property name="part" value="left"/>
   </properties>
  </object>
 </objectgroup>
 <objectgroup id="6" name="GridObjects">
  <object id="17" name="GridCell" x="532" y="201.011" width="81.9688" height="96.043">
   <properties>
    <property name="column" type="int" value="0"/>
    <property name="lane" type="int" value="0"/>
   </properties>
  </object>
  <object id="21" name="GridCell" x="613.965" y="201.007" width="81.9688" height="96.0313">
   <properties>
    <property name="column" type="int" value="1"/>
    <property name="lane" type="int" value="0"/>
   </properties>
  </object>
  <object id="22" name="GridCell" x="695.938" y="201.011" width="81.9688" height="96.043">
   <properties>
    <property name="column" type="int" value="2"/>
    <property name="lane" type="int" value="0"/>
   </properties>
  </object>
  <object id="23" name="GridCell" x="777.92" y="201.012" width="81.9688" height="96.0313">
   <properties>
    <property name="column" type="int" value="3"/>
    <property name="lane" type="int" value="0"/>
   </properties>
  </object>
  <object id="24" name="GridCell" x="859.921" y="201.013" width="81.9688" height="96.043">
   <properties>
    <property name="column" type="int" value="4"/>
    <property name="lane" type="int" value="0"/>
   </properties>
  </object>
  <object id="25" name="GridCell" x="941.886" y="201.01" width="81.9688" height="96.0313">
   <properties>
    <property name="column" type="int" value="5"/>
    <property name="lane" type="int" value="0"/>
   </properties>
  </object>
  <object id="26" name="GridCell" x="1023.86" y="201.014" width="81.9688" height="96.043">
   <properties>
    <property name="column" type="int" value="6"/>
    <property name="lane" type="int" value="0"/>
   </properties>
  </object>
  <object id="27" name="GridCell" x="1105.84" y="201.014" width="81.9688" height="96.0313">
   <properties>
    <property name="column" type="int" value="7"/>
    <property name="lane" type="int" value="0"/>
   </properties>
  </object>
  <object id="32" name="GridCell" x="1187.81" y="201.012" width="81.9688" height="96.0313">
   <properties>
    <property name="column" type="int" value="8"/>
    <property name="lane" type="int" value="0"/>
   </properties>
  </object>
  <object id="33" name="GridCell" x="532.003" y="297.041" width="81.9688" height="96.043">
   <properties>
    <property name="column" type="int" value="0"/>
    <property name="lane" type="int" value="1"/>
   </properties>
  </object>
  <object id="34" name="GridCell" x="613.968" y="297.038" width="81.9688" height="96.0313">
   <properties>
    <property name="column" type="int" value="1"/>
    <property name="lane" type="int" value="1"/>
   </properties>
  </object>
  <object id="35" name="GridCell" x="695.941" y="297.042" width="81.9688" height="96.043">
   <properties>
    <property name="column" type="int" value="2"/>
    <property name="lane" type="int" value="1"/>
   </properties>
  </object>
  <object id="36" name="GridCell" x="777.922" y="297.042" width="81.9688" height="96.0313">
   <properties>
    <property name="column" type="int" value="3"/>
    <property name="lane" type="int" value="1"/>
   </properties>
  </object>
  <object id="37" name="GridCell" x="859.924" y="297.043" width="81.9688" height="96.043">
   <properties>
    <property name="column" type="int" value="4"/>
    <property name="lane" type="int" value="1"/>
   </properties>
  </object>
  <object id="38" name="GridCell" x="941.889" y="297.04" width="81.9688" height="96.0313">
   <properties>
    <property name="column" type="int" value="5"/>
    <property name="lane" type="int" value="1"/>
   </properties>
  </object>
  <object id="39" name="GridCell" x="1023.86" y="297.044" width="81.9688" height="96.043">
   <properties>
    <property name="column" type="int" value="6"/>
    <property name="lane" type="int" value="1"/>
   </properties>
  </object>
  <object id="40" name="GridCell" x="1105.84" y="297.044" width="81.9688" height="96.0313">
   <properties>
    <property name="column" type="int" value="7"/>
    <property name="lane" type="int" value="1"/>
   </properties>
  </object>
  <object id="41" name="GridCell" x="1187.81" y="297.042" width="81.9688" height="96.0313">
   <properties>
    <property name="column" type="int" value="8"/>
    <property name="lane" type="int" value="1"/>
   </properties>
  </object>
  <object id="42" name="GridCell" x="532" y="393.083" width="81.9688" height="96.043">
   <properties>
    <property name="column" type="int" value="0"/>
    <property name="lane" type="int" value="2"/>
   </properties>
  </object>
  <object id="43" name="GridCell" x="613.965" y="393.079" width="81.9688" height="96.0313">
   <properties>
    <property name="column" type="int" value="1"/>
    <property name="lane" type="int" value="2"/>
   </properties>
  </object>
  <object id="44" name="GridCell" x="695.938" y="393.083" width="81.9688" height="96.043">
   <properties>
    <property name="column" type="int" value="2"/>
    <property name="lane" type="int" value="2"/>
   </properties>
  </object>
  <object id="45" name="GridCell" x="777.92" y="393.084" width="81.9688" height="96.0313">
   <properties>
    <property name="column" type="int" value="3"/>
    <property name="lane" type="int" value="2"/>
   </properties>
  </object>
  <object id="46" name="GridCell" x="859.921" y="393.085" width="81.9688" height="96.043">
   <properties>
    <property name="column" type="int" value="4"/>
    <property name="lane" type="int" value="2"/>
   </properties>
  </object>
  <object id="47" name="GridCell" x="941.886" y="393.082" width="81.9688" height="96.0313">
   <properties>
    <property name="column" type="int" value="5"/>
    <property name="lane" type="int" value="2"/>
   </properties>
  </object>
  <object id="48" name="GridCell" x="1023.86" y="393.086" width="81.9688" height="96.043">
   <properties>
    <property name="column" type="int" value="6"/>
    <property name="lane" type="int" value="2"/>
   </properties>
  </object>
  <object id="49" name="GridCell" x="1105.84" y="393.086" width="81.9688" height="96.0313">
   <properties>
    <property name="column" type="int" value="7"/>
    <property name="lane" type="int" value="2"/>
   </properties>
  </object>
  <object id="50" name="GridCell" x="1187.81" y="393.084" width="81.9688" height="96.0313">
   <properties>
    <property name="column" type="int" value="8"/>
    <property name="lane" type="int" value="2"/>
   </properties>
  </object>
  <object id="51" name="GridCell" x="532.003" y="489.113" width="81.9688" height="96.043">
   <properties>
    <property name="column" type="int" value="0"/>
    <property name="lane" type="int" value="3"/>
   </properties>
  </object>
  <object id="52" name="GridCell" x="613.968" y="489.11" width="81.9688" height="96.0313">
   <properties>
    <property name="column" type="int" value="1"/>
    <property name="lane" type="int" value="3"/>
   </properties>
  </object>
  <object id="53" name="GridCell" x="695.941" y="489.114" width="81.9688" height="96.043">
   <properties>
    <property name="column" type="int" value="2"/>
    <property name="lane" type="int" value="3"/>
   </properties>
  </object>
  <object id="54" name="GridCell" x="777.922" y="489.114" width="81.9688" height="96.0313">
   <properties>
    <property name="column" type="int" value="3"/>
    <property name="lane" type="int" value="3"/>
   </properties>
  </object>
  <object id="55" name="GridCell" x="859.924" y="489.115" width="81.9688" height="96.043">
   <properties>
    <property name="column" type="int" value="4"/>
    <property name="lane" type="int" value="3"/>
   </properties>
  </object>
  <object id="56" name="GridCell" x="941.889" y="489.112" width="81.9688" height="96.0313">
   <properties>
    <property name="column" type="int" value="5"/>
    <property name="lane" type="int" value="3"/>
   </properties>
  </object>
  <object id="57" name="GridCell" x="1023.86" y="489.116" width="81.9688" height="96.043">
   <properties>
    <property name="column" type="int" value="6"/>
    <property name="lane" type="int" value="3"/>
   </properties>
  </object>
  <object id="58" name="GridCell" x="1105.84" y="489.116" width="81.9688" height="96.0313">
   <properties>
    <property name="column" type="int" value="7"/>
    <property name="lane" type="int" value="3"/>
   </properties>
  </object>
  <object id="59" name="GridCell" x="1187.81" y="489.114" width="81.9688" height="96.0313">
   <properties>
    <property name="column" type="int" value="8"/>
    <property name="lane" type="int" value="3"/>
   </properties>
  </object>
  <object id="60" name="GridCell" x="532" y="585.156" width="81.9688" height="96.043">
   <properties>
    <property name="column" type="int" value="0"/>
    <property name="lane" type="int" value="4"/>
   </properties>
  </object>
  <object id="61" name="GridCell" x="613.965" y="585.152" width="81.9688" height="96.0313">
   <properties>
    <property name="column" type="int" value="1"/>
    <property name="lane" type="int" value="4"/>
   </properties>
  </object>
  <object id="62" name="GridCell" x="695.938" y="585.156" width="81.9688" height="96.043">
   <properties>
    <property name="column" type="int" value="2"/>
    <property name="lane" type="int" value="4"/>
   </properties>
  </object>
  <object id="63" name="GridCell" x="777.92" y="585.157" width="81.9688" height="96.0313">
   <properties>
    <property name="column" type="int" value="3"/>
    <property name="lane" type="int" value="4"/>
   </properties>
  </object>
  <object id="64" name="GridCell" x="859.921" y="585.158" width="81.9688" height="96.043">
   <properties>
    <property name="column" type="int" value="4"/>
    <property name="lane" type="int" value="4"/>
   </properties>
  </object>
  <object id="65" name="GridCell" x="941.886" y="585.155" width="81.9688" height="96.0313">
   <properties>
    <property name="column" type="int" value="5"/>
    <property name="lane" type="int" value="4"/>
   </properties>
  </object>
  <object id="66" name="GridCell" x="1023.86" y="585.159" width="81.9688" height="96.043">
   <properties>
    <property name="column" type="int" value="6"/>
    <property name="lane" type="int" value="4"/>
   </properties>
  </object>
  <object id="67" name="GridCell" x="1105.84" y="585.159" width="81.9688" height="96.0313">
   <properties>
    <property name="column" type="int" value="7"/>
    <property name="lane" type="int" value="4"/>
   </properties>
  </object>
  <object id="68" name="GridCell" x="1187.81" y="585.157" width="81.9688" height="96.0313">
   <properties>
    <property name="column" type="int" value="8"/>
    <property name="lane" type="int" value="4"/>
   </properties>
  </object>
 </objectgroup>
 <objectgroup id="7" name="LawnMowerObjects">
  <object id="18" name="LawnMowerCell" x="418.995" y="220.993" width="113" height="72.4">
   <properties>
    <property name="lane" type="int" value="0"/>
   </properties>
  </object>
  <object id="69" name="LawnMowerCell" x="418.981" y="306.145" width="113" height="72.4">
   <properties>
    <property name="lane" type="int" value="1"/>
   </properties>
  </object>
  <object id="70" name="LawnMowerCell" x="420.498" y="394.598" width="113" height="72.4">
   <properties>
    <property name="lane" type="int" value="2"/>
   </properties>
  </object>
  <object id="71" name="LawnMowerCell" x="419.024" y="495.231" width="113" height="72.4">
   <properties>
    <property name="lane" type="int" value="3"/>
   </properties>
  </object>
  <object id="74" name="LawnMowerCell" x="418.996" y="590.667" width="113" height="72.4">
   <properties>
    <property name="lane" type="int" value="4"/>
   </properties>
  </object>
 </objectgroup>
</map>
